public/library/sonicscan-text-dark.svg

<svg width="493" height="150" viewBox="0 0 493 150" fill="none" xmlns="http://www.w3.org/2000/svg">
<g clip-path="url(#clip0_16090_6584)">
<mask id="mask0_16090_6584" style="mask-type:luminance" maskUnits="userSpaceOnUse" x="0" y="0" width="492" height="150">
<path d="M491.951 0H0.363281V149.589H491.951V0Z" fill="white"/>
</mask>
<g mask="url(#mask0_16090_6584)">
<path d="M228.785 71.497C225.685 69.9929 221.753 69.2259 217.1 69.2259H204.121C200.838 69.2259 198.227 68.3212 196.392 66.5716L196.309 66.4876C194.504 64.5702 193.628 62.4012 193.628 59.8725C193.628 57.3439 194.528 55.0071 196.315 53.1196C198.109 51.2082 200.558 50.2435 203.597 50.2435H236.161V41.9327H202.399C198.686 41.9327 195.481 42.8015 192.626 44.5751C189.773 46.2649 187.603 48.4459 186.007 51.2322C184.415 54.0125 183.641 56.9664 183.641 60.2681C183.641 64.1268 184.468 67.4045 186.114 70.0529C187.871 72.7313 190.184 74.7326 193.241 76.1886C196.344 77.5249 200.01 78.202 204.139 78.202H217.779C219.966 78.202 221.884 78.6993 223.547 79.7059C225.191 80.5987 226.43 81.863 227.241 83.4808C228.039 84.9968 228.409 86.5488 228.409 88.3643C228.409 90.1798 227.963 92.0134 227.087 93.6851C226.21 95.3629 224.863 96.765 223.099 97.8436C221.443 98.8262 219.429 99.3235 217.117 99.3235L185.75 99.3115V106.802H186.566V107.616L218.572 107.628C222.545 107.628 225.919 106.718 228.855 104.86C231.901 102.991 234.201 100.648 235.887 97.6758C237.574 94.6199 238.396 91.4441 238.396 87.9628C238.396 83.9242 237.55 80.4729 235.899 77.7285C234.326 74.9843 232.003 72.941 228.796 71.497H228.785Z" fill="white"/>
<path d="M305.038 44.964C299.948 41.896 293.99 40.3382 287.339 40.3382C280.69 40.3382 274.732 41.9021 269.618 44.9819C264.512 47.9719 260.412 52.1423 257.433 57.3673C254.454 62.4964 252.945 68.3565 252.945 74.7858C252.945 81.2152 254.454 87.1233 257.433 92.3363C260.407 97.4714 264.5 101.636 269.613 104.722C274.493 107.586 280.172 109.102 286.476 109.222L287.334 109.245C293.984 109.245 299.943 107.73 305.049 104.74C310.246 101.66 314.346 97.4894 317.242 92.3603C320.221 87.1353 321.728 81.2272 321.728 74.7919C321.728 68.3565 320.215 62.3465 317.236 57.2175C314.339 52.0884 310.234 47.9599 305.038 44.958V44.964ZM311.604 74.7858C311.604 79.6513 310.58 84.1272 308.571 88.082C306.545 91.9708 303.703 95.1106 300.115 97.4234C296.558 99.7184 292.137 100.929 287.339 100.929C282.544 100.929 278.265 99.7483 274.564 97.4234C270.977 95.1106 268.129 91.9647 266.102 88.076C264.089 84.1213 263.064 79.6513 263.064 74.7858C263.064 69.9204 264.082 65.4983 266.102 61.6275C268.129 57.6489 270.983 54.4492 274.577 52.1364C278.271 49.8175 282.561 48.6431 287.334 48.6431C292.107 48.6431 296.493 49.8234 300.104 52.1482C303.709 54.4732 306.551 57.6549 308.565 61.6216C310.58 65.4983 311.604 69.9324 311.604 74.7919V74.7858Z" fill="white"/>
<path d="M385.729 44.0532C381.237 41.5905 375.939 40.3382 369.981 40.3382C364.021 40.3382 358.783 41.6025 354.195 44.0772C349.566 46.4859 346.031 49.7815 343.374 54.1736C340.842 58.5117 339.555 63.6529 339.555 69.4591V107.64H349.536V69.5909C349.536 65.3186 350.483 61.5797 352.349 58.4818C354.285 55.312 356.835 52.8493 359.916 51.1597C363.062 49.4819 366.441 48.637 369.968 48.637C373.495 48.637 376.826 49.4819 379.89 51.1597C383.047 52.8434 385.592 55.3001 387.482 58.5178C389.418 61.6035 390.401 65.3246 390.401 69.5848V105.441L390.424 106.381L391.736 107.64H400.394V69.4591C400.394 63.6648 399.059 58.5117 396.443 54.1675C393.875 49.7815 390.365 46.4739 385.723 44.0472L385.729 44.0532Z" fill="white"/>
<path d="M432.05 41.9258H421.938V107.633H432.05V41.9258Z" fill="white"/>
<path d="M471.96 53.5985H471.972C475.737 51.3755 480.028 50.249 484.711 50.249H491.958V41.9382H485.111C478.353 41.9382 472.252 43.4182 466.966 46.3304C461.698 49.2363 457.462 53.233 454.394 58.2004C451.337 63.0538 449.793 68.6383 449.793 74.7921C449.793 80.9458 451.337 86.5602 454.394 91.5155C457.462 96.387 461.698 100.336 466.972 103.254C471.31 105.645 476.214 107.071 481.571 107.502L481.493 107.658H491.951V99.3471H484.706C480.028 99.3471 475.726 98.2565 471.96 96.1233C468.29 93.9003 465.298 90.8923 463.093 87.2013C460.972 83.4864 459.899 79.316 459.899 74.798C459.899 70.2801 460.984 66.0918 463.105 62.3767C465.303 58.6857 468.29 55.7377 471.96 53.6105V53.5985Z" fill="white"/>
<path d="M25.6251 23.5676C39.6721 37.4556 62.1401 49.3019 89.2804 57.4218C75.1014 49.4806 61.9542 39.5987 50.4442 28.1811C46.1679 23.9366 42.0533 19.4183 38.2087 14.7513L35.5336 11.4951C31.0412 14.2393 26.8787 17.4539 23.082 21.0495L25.6312 23.5676H25.6251Z" fill="white"/>
<path d="M0.09375 80.1375C1.18536 95.3532 6.88333 109.295 15.8261 120.605L18.1532 118.314C26.8502 109.759 38.1861 101.991 51.8432 95.2102C63.8269 89.2634 77.574 84.1676 92.3887 80.1375H0.09375Z" fill="white"/>
<path d="M89.2725 92.1687C62.1322 100.294 39.6704 112.135 25.6234 126.023L23.0742 128.541C26.8709 132.137 31.0395 135.351 35.5319 138.095L38.2069 134.845C42.0515 130.178 46.166 125.66 50.4425 121.409C61.9463 109.992 75.0997 100.11 89.2725 92.1687Z" fill="white"/>
<path d="M47.0307 8.58381C50.5035 12.7628 54.2102 16.8167 58.0549 20.6266C82.3582 44.7477 112.941 60.6955 146.493 66.7378L149.227 67.2319C145.408 29.7465 113.517 0.487854 74.7408 0.487854C64.2806 0.487854 54.3182 2.62495 45.2734 6.47053L47.0248 8.57786L47.0307 8.58381Z" fill="white"/>
<path d="M92.3887 69.4524C77.574 65.4224 63.8269 60.3267 51.8432 54.3798C38.1802 47.5993 26.8502 39.8248 18.1532 31.2765L15.8261 28.9906C6.88333 40.2951 1.17936 54.2368 0.09375 69.4524H92.3887Z" fill="white"/>
<path d="M146.487 82.8518C112.935 88.8941 82.3582 104.836 58.0488 128.963C54.1922 132.791 50.4855 136.845 47.0248 141.006L45.2734 143.113C54.3182 146.958 64.2746 149.096 74.7349 149.096C113.511 149.096 145.395 119.843 149.216 82.3577L146.481 82.8459L146.487 82.8518Z" fill="white"/>
</g>
</g>
<defs>
<clipPath id="clip0_16090_6584">
<rect width="493" height="149.589" fill="white"/>
</clipPath>
</defs>
</svg>

<svg xmlns="http://www.w3.org/2000/svg" width="493" height="150" fill="none" viewBox="0 0 493 150"><g clip-path="url(#a)"><mask id="b" width="492" height="150" x="0" y="0" maskUnits="userSpaceOnUse" style="mask-type:luminance"><path fill="#fff" d="M491.951 0H.363v149.589h491.588z"/></mask><g fill="#fff" mask="url(#b)"><path d="M228.785 71.497c-3.1-1.504-7.032-2.271-11.685-2.271h-12.979c-3.283 0-5.894-.905-7.729-2.654l-.083-.084c-1.805-1.918-2.681-4.087-2.681-6.615 0-2.53.9-4.866 2.687-6.753 1.794-1.912 4.243-2.876 7.282-2.876h32.564v-8.311h-33.762c-3.713 0-6.918.868-9.773 2.642-2.853 1.69-5.023 3.87-6.619 6.657-1.592 2.78-2.366 5.734-2.366 9.036 0 3.859.827 7.136 2.473 9.785 1.757 2.678 4.07 4.68 7.127 6.136 3.103 1.336 6.769 2.013 10.898 2.013h13.64c2.187 0 4.105.497 5.768 1.504 1.644.893 2.883 2.157 3.694 3.775.798 1.516 1.168 3.068 1.168 4.883 0 1.816-.446 3.65-1.322 5.321-.877 1.678-2.224 3.08-3.988 4.159-1.656.982-3.67 1.48-5.982 1.48l-31.367-.013v7.491h.816v.814l32.006.012c3.973 0 7.347-.91 10.283-2.768 3.046-1.869 5.346-4.212 7.032-7.184 1.687-3.056 2.509-6.232 2.509-9.713 0-4.039-.846-7.49-2.497-10.234-1.573-2.745-3.896-4.788-7.103-6.232zM305.038 44.964c-5.09-3.068-11.048-4.626-17.699-4.626-6.649 0-12.607 1.564-17.721 4.644-5.106 2.99-9.206 7.16-12.185 12.385-2.979 5.13-4.488 10.99-4.488 17.419s1.509 12.337 4.488 17.55c2.974 5.135 7.067 9.3 12.18 12.386 4.88 2.864 10.559 4.38 16.863 4.5l.858.023c6.65 0 12.609-1.515 17.715-4.505 5.197-3.08 9.297-7.25 12.193-12.38 2.979-5.225 4.486-11.133 4.486-17.568s-1.513-12.446-4.492-17.574c-2.897-5.13-7.002-9.258-12.198-12.26zm6.566 29.822c0 4.865-1.024 9.341-3.033 13.296-2.026 3.889-4.868 7.029-8.456 9.341-3.557 2.295-7.978 3.506-12.776 3.506-4.795 0-9.074-1.18-12.775-3.506-3.587-2.312-6.435-5.458-8.462-9.347-2.013-3.955-3.038-8.425-3.038-13.29 0-4.866 1.018-9.288 3.038-13.159 2.027-3.978 4.881-7.178 8.475-9.49 3.694-2.32 7.984-3.494 12.757-3.494s9.159 1.18 12.77 3.505c3.605 2.325 6.447 5.507 8.461 9.474 2.015 3.876 3.039 8.31 3.039 13.17zM385.729 44.053c-4.492-2.462-9.79-3.715-15.748-3.715-5.96 0-11.198 1.264-15.786 3.74-4.629 2.408-8.164 5.703-10.821 10.096-2.532 4.338-3.819 9.479-3.819 15.285v38.181h9.981V69.59c0-4.271.947-8.01 2.813-11.108 1.936-3.17 4.486-5.633 7.567-7.322a21.14 21.14 0 0 1 10.052-2.523c3.527 0 6.858.845 9.922 2.523 3.157 1.683 5.702 4.14 7.592 7.358 1.936 3.085 2.919 6.807 2.919 11.067v35.856l.023.94 1.312 1.259h8.658V69.46c0-5.795-1.335-10.948-3.951-15.292-2.568-4.386-6.078-7.694-10.72-10.12zM432.05 41.926h-10.112v65.707h10.112zM471.96 53.599h.012c3.765-2.223 8.056-3.35 12.739-3.35h7.247v-8.31h-6.847c-6.758 0-12.859 1.48-18.145 4.391-5.268 2.906-9.504 6.903-12.572 11.87-3.057 4.854-4.601 10.438-4.601 16.592s1.544 11.768 4.601 16.724c3.068 4.871 7.304 8.82 12.578 11.738 4.338 2.391 9.242 3.817 14.599 4.248l-.078.156h10.458v-8.31h-7.245c-4.678 0-8.98-1.091-12.746-3.225a25.8 25.8 0 0 1-8.867-8.922c-2.121-3.715-3.194-7.885-3.194-12.403s1.085-8.706 3.206-12.421c2.198-3.691 5.185-6.64 8.855-8.766zM25.625 23.568C39.672 37.456 62.14 49.302 89.28 57.422c-14.179-7.941-27.326-17.823-38.836-29.24a182 182 0 0 1-12.235-13.43l-2.675-3.257a75 75 0 0 0-12.452 9.555l2.55 2.518zM.094 80.138c1.091 15.215 6.79 29.157 15.732 40.467l2.327-2.291c8.697-8.555 20.033-16.323 33.69-23.104 11.984-5.947 25.731-11.042 40.546-15.072zM89.273 92.169c-27.14 8.125-49.603 19.966-63.65 33.854l-2.549 2.518a75 75 0 0 0 12.458 9.554l2.675-3.25a184 184 0 0 1 12.236-13.436c11.503-11.417 24.657-21.299 38.83-29.24M47.03 8.584a170 170 0 0 0 11.025 12.043c24.303 24.12 54.886 40.069 88.438 46.11l2.734.495C145.408 29.747 113.517.488 74.741.488A75.15 75.15 0 0 0 45.273 6.47l1.752 2.107zM92.389 69.452c-14.815-4.03-28.562-9.125-40.546-15.072C38.18 47.6 26.85 39.825 18.153 31.276l-2.327-2.285C6.883 40.295 1.18 54.237.094 69.452zM146.487 82.852c-33.552 6.042-64.129 21.984-88.438 46.111a172 172 0 0 0-11.024 12.043l-1.752 2.107a75.1 75.1 0 0 0 29.462 5.983c38.776 0 70.66-29.253 74.481-66.738l-2.735.488z"/></g></g><defs><clipPath id="a"><path fill="#fff" d="M0 0h493v149.589H0z"/></clipPath></defs></svg>
